Adwaita++/actions/16/distribute-vertical-node.svg

<svg fill="none" height="16" viewBox="0 0 16 16" width="16" xmlns="http://www.w3.org/2000/svg" xmlns:xlink="http://www.w3.org/1999/xlink">
  <defs>
    <clipPath id="clip0">
      <path d="m0 0h16v16h-16z"/>
    </clipPath>
  </defs>
  <g clip-path="url(#clip0)" fill="#444">
    <rect height="16" rx=".5" width="2" x="5.25"/>
    <path d="m4.25 0h4v4h-4z"/>
    <path d="m4.25 6h4v4h-4z"/>
    <path d="m4.25 12h4v4h-4z"/>
    <path clip-rule="evenodd" d="m9.75 2.25h-8.25c-.41421 0-.75-.33579-.75-.75s.33579-.75.75-.75h8.25c1.5188 0 2.75 1.23122 2.75 2.75v2.5c0 1.51878-1.2312 2.75-2.75 2.75h-7c-.69036 0-1.25.55964-1.25 1.25v2c0 .6904.55964 1.25 1.25 1.25h7.75c.4142 0 .75.3358.75.75s-.3358.75-.75.75h-7.75c-1.51878 0-2.75-1.2312-2.75-2.75v-2c0-1.51878 1.23122-2.75 2.75-2.75h7c.6904 0 1.25-.55964 1.25-1.25v-2.5c0-.69036-.5596-1.25-1.25-1.25z" fill-rule="evenodd"/>
    <path d="m15 3h3v1h-3z" transform="matrix(0 1 -1 0 18 -12)"/>
    <path d="m13 3 3 .00192v-.15157-.01568c.0003-.02925-.0116-.05817-.0375-.08365l-1.2-1.17149c-.0516-.052-.157-.0785-.2625-.07857s-.2109.0263-.2625.07823l-1.2 1.16996c-.0259.02544-.0379.05435-.0375.0836v.01568z"/>
    <path d="m13 6 3-.00192v.15157.01568c.0003.02925-.0116.05817-.0375.08365l-1.2 1.17149c-.0516.052-.157.0785-.2625.07857s-.2109-.0263-.2625-.07823l-1.2-1.16996c-.0259-.02544-.0379-.05435-.0375-.0836v-.01568z"/>
    <path d="m15 10h3v1h-3z" transform="matrix(0 1 -1 0 25 -5)"/>
    <path d="m13 10 3 .0019v-.15155-.01568c.0003-.02925-.0116-.05817-.0375-.08365l-1.2-1.17149c-.0516-.052-.157-.0785-.2625-.07857s-.2109.0263-.2625.07823l-1.2 1.16996c-.0259.02544-.0379.05435-.0375.0836v.01568z"/>
    <path d="m13 13 3-.0019v.1515.0157c.0003.0293-.0116.0582-.0375.0837l-1.2 1.1715c-.0516.052-.157.0785-.2625.0785-.1055.0001-.2109-.0263-.2625-.0782l-1.2-1.17c-.0259-.0254-.0379-.0543-.0375-.0836v-.0156z"/>
  </g>
</svg>

<svg xmlns="http://www.w3.org/2000/svg" fill="none" width="16" height="16" viewBox="0 0 16 16">
 <g clip-path="url(#clip0)">
  <rect fill="#444" width="2" height="16" x="5.25" rx=".5"/>
  <rect fill="#444" width="4" height="4" x="4.25"/>
  <rect fill="#444" width="4" height="4" x="4.25" y="6"/>
  <rect fill="#444" width="4" height="4" x="4.25" y="12"/>
  <path fill="#444" fill-rule="evenodd" d="M9.75 2.25H1.5C1.08579 2.25 0.75 1.91421 0.75 1.5C0.75 1.08579 1.08579 0.75 1.5 0.75L9.75 0.75C11.2688 0.75 12.5 1.98122 12.5 3.5V6C12.5 7.51878 11.2688 8.75 9.75 8.75H2.75C2.05964 8.75 1.5 9.30964 1.5 10V12C1.5 12.6904 2.05964 13.25 2.75 13.25H10.5C10.9142 13.25 11.25 13.5858 11.25 14C11.25 14.4142 10.9142 14.75 10.5 14.75H2.75C1.23122 14.75 0 13.5188 0 12L0 10C0 8.48122 1.23122 7.25 2.75 7.25H9.75C10.4404 7.25 11 6.69036 11 6V3.5C11 2.80964 10.4404 2.25 9.75 2.25Z" clip-rule="evenodd"/>
  <rect fill="#444" width="3" height="1" x="15" y="3" transform="rotate(90 15 3)"/>
  <path fill="#444" d="M13 3L16 3.00192V2.85035V2.83467C16.0003 2.80542 15.9884 2.7765 15.9625 2.75102L14.7625 1.57953C14.7109 1.52753 14.6055 1.50103 14.5 1.50096C14.3945 1.50089 14.2891 1.52726 14.2375 1.57919L13.0375 2.74915C13.0116 2.77459 12.9996 2.8035 13 2.83275V2.84843V3Z"/>
  <path fill="#444" d="M13 6L16 5.99808V6.14965V6.16533C16.0003 6.19458 15.9884 6.2235 15.9625 6.24898L14.7625 7.42047C14.7109 7.47247 14.6055 7.49897 14.5 7.49904C14.3945 7.49911 14.2891 7.47274 14.2375 7.42081L13.0375 6.25085C13.0116 6.22541 12.9996 6.1965 13 6.16725V6.15157V6Z"/>
  <rect fill="#444" width="3" height="1" x="15" y="10" transform="rotate(90 15 10)"/>
  <path fill="#444" d="M13 10L16 10.0019V9.85035V9.83467C16.0003 9.80542 15.9884 9.7765 15.9625 9.75102L14.7625 8.57953C14.7109 8.52753 14.6055 8.50103 14.5 8.50096C14.3945 8.50089 14.2891 8.52726 14.2375 8.57919L13.0375 9.74915C13.0116 9.77459 12.9996 9.8035 13 9.83275V9.84843V10Z"/>
  <path fill="#444" d="M13 13L16 12.9981V13.1496V13.1653C16.0003 13.1946 15.9884 13.2235 15.9625 13.249L14.7625 14.4205C14.7109 14.4725 14.6055 14.499 14.5 14.499C14.3945 14.4991 14.2891 14.4727 14.2375 14.4208L13.0375 13.2508C13.0116 13.2254 12.9996 13.1965 13 13.1672V13.1516V13Z"/>
 </g>
 <defs>
  <clipPath id="clip0">
   <rect fill="#fff" width="16" height="16"/>
  </clipPath>
 </defs>
</svg>
